app/assets/images/payment_icons/acima_leasing.svg

<svg xmlns="http://www.w3.org/2000/svg" viewBox="0 0 38 24" width="38" height="24" role="img" aria-labelledby="pi-acima_leasing"><title id="pi-acima_leasing">Acima Leasing</title><rect width="38" height="24" fill="white"/><path d="M3.76099 6.38499C3.2727 6.37941 2.7881 6.47006 2.33484 6.65177C1.88159 6.83347 1.46856 7.10267 1.11934 7.444C0.414065 8.13334 0.0115133 9.07461 0.00024314 10.0608C-0.0110271 11.0469 0.369908 11.9971 1.05925 12.7024C1.74858 13.4077 2.68986 13.8102 3.676 13.8215H3.76099C4.49335 13.822 5.20917 13.6038 5.81665 13.1947V13.7259H7.47393V10.0926C7.47393 9.10648 7.08219 8.16073 6.38488 7.46342C5.68757 6.76611 4.74182 6.37437 3.75568 6.37437L3.76099 6.38499ZM3.75568 12.0899C3.35834 12.0888 2.97025 11.9699 2.64053 11.7481C2.31081 11.5264 2.0543 11.2118 1.90346 10.8442C1.75263 10.4766 1.71425 10.0725 1.79318 9.68312C1.87212 9.2937 2.06483 8.93645 2.3469 8.65661C2.62898 8.37676 2.98774 8.1869 3.37778 8.11106C3.76782 8.03522 4.17159 8.07681 4.53797 8.23057C4.90436 8.38432 5.21689 8.64333 5.436 8.97479C5.65511 9.30626 5.77095 9.69529 5.76885 10.0926C5.76885 10.6251 5.55731 11.1358 5.18076 11.5124C4.80421 11.8889 4.29351 12.1005 3.76099 12.1005" fill="#6BC4E8"/><path d="M33.5654 6.38499C32.5793 6.38499 31.6335 6.77674 30.9362 7.47405C30.2389 8.17135 29.8472 9.11711 29.8472 10.1032C29.8472 11.0894 30.2389 12.0351 30.9362 12.7324C31.6335 13.4298 32.5793 13.8215 33.5654 13.8215C34.2962 13.8223 35.0104 13.6039 35.6158 13.1947V13.7259H37.2784V10.0926C37.2784 9.10648 36.8866 8.16073 36.1893 7.46342C35.492 6.76611 34.5463 6.37437 33.5601 6.37437L33.5654 6.38499ZM33.5601 12.0899C33.163 12.0899 32.7748 11.9721 32.4446 11.7515C32.1144 11.5308 31.8571 11.2173 31.7051 10.8504C31.5531 10.4835 31.5134 10.0798 31.5908 9.69029C31.6683 9.3008 31.8595 8.94303 32.1403 8.66223C32.4211 8.38143 32.7789 8.1902 33.1684 8.11272C33.5579 8.03525 33.9616 8.07501 34.3285 8.22698C34.6954 8.37895 35.009 8.6363 35.2296 8.96649C35.4502 9.29669 35.568 9.68488 35.568 10.082C35.568 10.6145 35.3564 11.1252 34.9799 11.5018C34.6033 11.8783 34.0926 12.0899 33.5601 12.0899Z" fill="#6BC4E8"/><path d="M11.7499 13.8162C11.1122 13.8176 10.4848 13.6549 9.92803 13.3438C9.3713 13.0327 8.90395 12.5836 8.5709 12.0397C8.23784 11.4958 8.05029 10.8754 8.02626 10.238C8.00223 9.60073 8.14253 8.96795 8.43368 8.40051C8.72483 7.83308 9.15704 7.35008 9.68876 6.99792C10.2205 6.64576 10.8339 6.4363 11.4699 6.38965C12.106 6.343 12.7433 6.46074 13.3208 6.73156C13.8982 7.00237 14.3962 7.41715 14.767 7.93603L13.3966 8.92403C13.1441 8.57437 12.7859 8.31505 12.3749 8.18429C11.9639 8.05353 11.5217 8.05823 11.1136 8.19771C10.7054 8.33718 10.3529 8.60405 10.1078 8.95901C9.86278 9.31396 9.73822 9.73823 9.75249 10.1693C9.76675 10.6004 9.91909 11.0155 10.1871 11.3535C10.455 11.6914 10.8245 11.9344 11.2409 12.0466C11.6574 12.1588 12.0989 12.1342 12.5004 11.9766C12.9019 11.8189 13.2421 11.5365 13.471 11.1709L14.8945 12.0527C14.562 12.5907 14.0977 13.035 13.5456 13.3436C12.9935 13.6522 12.3718 13.8149 11.7393 13.8162" fill="#6BC4E8"/><path d="M17.2688 13.7046H15.6487V7.77669L17.2688 6.60278V13.7046Z" fill="#6BC4E8"/><path d="M29.0876 9.49239V13.7046H27.3241V9.49239C27.3241 9.16978 27.1959 8.86038 26.9678 8.63227C26.7397 8.40415 26.4303 8.27599 26.1077 8.27599C25.7851 8.27599 25.4757 8.40415 25.2476 8.63227C25.0195 8.86038 24.8913 9.16978 24.8913 9.49239V13.7046H23.1065V9.49239C23.1176 9.32553 23.0942 9.15819 23.0379 9.00073C22.9817 8.84326 22.8937 8.69902 22.7794 8.57695C22.6651 8.45487 22.527 8.35755 22.3736 8.29102C22.2201 8.22449 22.0547 8.19016 21.8875 8.19016C21.7203 8.19016 21.5548 8.22449 21.4014 8.29102C21.248 8.35755 21.1099 8.45487 20.9956 8.57695C20.8813 8.69902 20.7933 8.84326 20.737 9.00073C20.6808 9.15819 20.6574 9.32553 20.6684 9.49239V13.7046H18.9049V9.49239C18.9057 8.90129 19.082 8.32374 19.4114 7.83294C19.7408 7.34213 20.2085 6.96017 20.7552 6.73545C21.302 6.51073 21.9031 6.45338 22.4824 6.57066C23.0618 6.68794 23.5933 6.97457 24.0095 7.39423C24.4242 6.9759 24.954 6.69035 25.5314 6.57391C26.1088 6.45747 26.7078 6.51541 27.2522 6.74034C27.7966 6.96528 28.2618 7.34705 28.5886 7.83711C28.9155 8.32716 29.0892 8.90335 29.0876 9.49239Z" fill="#6BC4E8"/><path d="M13.4603 4.81802L15.7868 6.36906L15.8134 6.33188L15.8187 4.81802H13.4603Z" fill="#6BC4E8"/><path d="M15.7869 4L17.4016 4.84989L15.8028 4.84457L15.7869 4.81802V4Z" fill="#0033A1"/><path d="M17.4229 5.28014L15.7869 6.36906V4.81802H17.2795C17.3132 4.81729 17.3466 4.82339 17.3779 4.83595C17.4092 4.84851 17.4376 4.86726 17.4614 4.89108C17.4852 4.9149 17.504 4.9433 17.5165 4.97456C17.5291 5.00582 17.5352 5.0393 17.5344 5.07298C17.5309 5.11328 17.5192 5.15244 17.5 5.18806C17.4808 5.22368 17.4546 5.25501 17.4229 5.28014Z" fill="#EB5E1B"/><path d="M11.2819 19.3387H9.1643C9.12072 19.3387 9.07893 19.3214 9.04812 19.2906C9.01731 19.2598 9 19.218 9 19.1744V15.1643C9 15.1207 9.01731 15.0789 9.04812 15.0481C9.07893 15.0173 9.12072 15 9.1643 15H9.29209C9.33566 15 9.37745 15.0173 9.40826 15.0481C9.43908 15.0789 9.45639 15.1207 9.45639 15.1643V18.8945H11.2819C11.3255 18.8945 11.3673 18.9118 11.3981 18.9426C11.4289 18.9735 11.4462 19.0152 11.4462 19.0588V19.1562C11.4462 19.1998 11.4289 19.2415 11.3981 19.2724C11.3673 19.3032 11.3255 19.3205 11.2819 19.3205" fill="#EB5E1B"/><path d="M13.0283 19.4178C12.8192 19.421 12.6117 19.3795 12.4198 19.2961C12.2448 19.2195 12.0873 19.1076 11.9573 18.9675C11.8225 18.8217 11.719 18.6498 11.6531 18.4625C11.5851 18.2668 11.5501 18.0611 11.5496 17.854C11.5464 17.6459 11.5836 17.4393 11.6592 17.2454C11.727 17.0676 11.8282 16.9045 11.9573 16.7647C12.0815 16.625 12.2354 16.5148 12.4076 16.4422C12.5903 16.3638 12.787 16.3234 12.9857 16.3234C13.1845 16.3234 13.3812 16.3638 13.5638 16.4422C13.7291 16.5178 13.8764 16.6277 13.9959 16.7647C14.1112 16.8979 14.1982 17.0532 14.2515 17.2211C14.3068 17.3838 14.3356 17.5543 14.3366 17.7262V17.8357C14.3351 17.8798 14.3164 17.9216 14.2846 17.9523C14.2529 17.9829 14.2104 18 14.1663 18H12.0304C12.0428 18.0863 12.0611 18.1717 12.0851 18.2556C12.1236 18.3872 12.1854 18.5109 12.2677 18.6207C12.355 18.7246 12.4627 18.8095 12.5841 18.8702C12.7989 18.9762 13.0445 19.002 13.2766 18.9429C13.5087 18.8837 13.712 18.7436 13.8498 18.5477C13.8826 18.5164 13.9262 18.499 13.9715 18.499C14.0169 18.499 14.0604 18.5164 14.0932 18.5477L14.1845 18.6268C14.2123 18.6589 14.2277 18.6999 14.2277 18.7424C14.2277 18.7849 14.2123 18.8259 14.1845 18.858C14.049 19.0349 13.8766 19.1802 13.6794 19.284C13.4708 19.3842 13.2415 19.4342 13.0101 19.43L13.0283 19.4178ZM12.0304 17.6045H13.8559C13.8458 17.5231 13.8253 17.4434 13.7951 17.3671C13.7533 17.254 13.6892 17.1506 13.6064 17.0629C13.5265 16.9778 13.4289 16.9113 13.3204 16.8682C13.1925 16.8185 13.0558 16.7956 12.9187 16.8008C12.7816 16.806 12.647 16.8393 12.5233 16.8986C12.4087 16.9619 12.3091 17.049 12.2312 17.1542C12.1568 17.2514 12.0993 17.3604 12.0608 17.4767C12.0608 17.5254 12.0608 17.568 12.0304 17.6045Z" fill="#EB5E1B"/><path d="M15.718 19.4178C15.5963 19.4171 15.4753 19.3987 15.3589 19.3631C15.2409 19.3303 15.1296 19.2768 15.0303 19.2049C14.9257 19.1307 14.8402 19.0326 14.7809 18.9189C14.7137 18.7915 14.6802 18.649 14.6835 18.5051C14.6746 18.3044 14.7395 18.1074 14.866 17.9513C14.9811 17.8178 15.1245 17.7118 15.2859 17.641C15.4486 17.5709 15.6209 17.5257 15.7971 17.5071C15.9526 17.4885 16.109 17.4783 16.2656 17.4767H16.5516V17.4341C16.5602 17.3412 16.5488 17.2476 16.5184 17.1595C16.488 17.0714 16.4392 16.9907 16.3752 16.9229C16.235 16.8087 16.0566 16.7522 15.8762 16.7647C15.7514 16.7645 15.6277 16.7872 15.5111 16.8316C15.3959 16.8818 15.2891 16.9496 15.1946 17.0325C15.159 17.0624 15.1133 17.0777 15.0669 17.075C15.0432 17.0727 15.0205 17.0649 15.0004 17.0523C14.9803 17.0396 14.9635 17.0224 14.9512 17.002L14.8843 16.9047C14.8585 16.874 14.8444 16.8352 14.8444 16.7951C14.8444 16.7551 14.8585 16.7163 14.8843 16.6856C15.0207 16.5687 15.1775 16.4779 15.3468 16.4178C15.5084 16.3568 15.6792 16.3239 15.8518 16.3205C16.1486 16.3047 16.4402 16.4027 16.6673 16.5943C16.7792 16.7035 16.866 16.8356 16.9217 16.9817C16.9774 17.1278 17.0006 17.2842 16.9898 17.4402V18.5842C16.9898 18.6755 16.9898 18.7789 16.9898 18.8823C16.9843 18.9695 16.9843 19.0569 16.9898 19.144C16.993 19.1676 16.9915 19.1917 16.9852 19.2147C16.979 19.2377 16.9681 19.2592 16.9533 19.2779C16.9376 19.2966 16.918 19.3117 16.896 19.3222C16.8739 19.3327 16.8499 19.3383 16.8255 19.3387H16.7038C16.666 19.338 16.6297 19.3243 16.6009 19.2999C16.5721 19.2755 16.5525 19.242 16.5456 19.2049C16.5456 19.1684 16.5456 19.1258 16.5456 19.071C16.4893 19.1277 16.4259 19.1768 16.3569 19.217C16.1548 19.3503 15.9175 19.4202 15.6754 19.4178H15.718ZM16.2839 17.9148C16.1439 17.9148 15.9979 17.9148 15.8518 17.9148C15.7162 17.9292 15.5831 17.962 15.4563 18.0122C15.3544 18.0487 15.2641 18.1117 15.1946 18.1947C15.1332 18.2769 15.103 18.3783 15.1095 18.4807C15.1069 18.5567 15.1237 18.632 15.1581 18.6998C15.1872 18.7572 15.2314 18.8056 15.2859 18.8398C15.3461 18.8779 15.4118 18.9066 15.4806 18.9249C15.581 18.956 15.6865 18.9667 15.7911 18.9562C15.8956 18.9458 15.997 18.9144 16.0892 18.8641C16.2016 18.8253 16.3022 18.7582 16.3813 18.6694C16.4432 18.5743 16.4885 18.4693 16.5151 18.359C16.5439 18.2415 16.5582 18.121 16.5577 18V17.9391L16.2839 17.9148Z" fill="#EB5E1B"/><path d="M18.5476 19.4057C18.3376 19.411 18.1292 19.3672 17.9391 19.2779C17.7582 19.1916 17.6015 19.062 17.4827 18.9006C17.4678 18.8593 17.4678 18.8141 17.4827 18.7728C17.4867 18.7505 17.4952 18.7293 17.5078 18.7104C17.5203 18.6916 17.5367 18.6755 17.5557 18.6633L17.6531 18.5963C17.6897 18.5724 17.7342 18.5634 17.7772 18.5714C17.8203 18.5793 17.8586 18.6035 17.8843 18.6389C17.9593 18.7471 18.0608 18.8341 18.1791 18.8916C18.2974 18.9492 18.4285 18.9753 18.5598 18.9675C18.6297 18.9659 18.6992 18.9557 18.7667 18.9371C18.831 18.9159 18.8909 18.8828 18.9432 18.8398C18.9971 18.8025 19.0409 18.7523 19.0706 18.6939C19.1003 18.6355 19.1151 18.5706 19.1135 18.5051C19.1163 18.4349 19.0995 18.3654 19.0649 18.3043C19.0246 18.2506 18.9726 18.2069 18.9127 18.1765C18.838 18.1342 18.7583 18.1015 18.6754 18.0791L18.3955 18C18.298 17.9769 18.2023 17.9464 18.1095 17.9087C18.0152 17.8714 17.927 17.8201 17.8478 17.7566C17.767 17.6911 17.7025 17.6078 17.6592 17.5132C17.6075 17.4007 17.5825 17.2779 17.5862 17.1542C17.5839 17.0246 17.6154 16.8967 17.6774 16.783C17.732 16.68 17.8089 16.5906 17.9026 16.5213C17.9959 16.4534 18.1012 16.4039 18.2129 16.3753C18.3228 16.3388 18.4379 16.3203 18.5537 16.3205C18.7344 16.3103 18.9147 16.3462 19.0776 16.425C19.2405 16.5038 19.3806 16.6228 19.4847 16.7708C19.5023 16.8137 19.5023 16.8618 19.4847 16.9047C19.4805 16.9276 19.4711 16.9494 19.4575 16.9683C19.4438 16.9872 19.4261 17.0029 19.4056 17.0142L19.3022 17.075C19.2666 17.0955 19.2249 17.1024 19.1847 17.0946C19.1445 17.0868 19.1084 17.0647 19.0831 17.0325C19.0235 16.9439 18.9417 16.8725 18.8458 16.8256C18.6875 16.7525 18.5079 16.7395 18.3407 16.789C18.2809 16.8026 18.2234 16.8252 18.1703 16.856C18.1263 16.8891 18.0891 16.9304 18.0608 16.9777C18.029 17.0308 18.0141 17.0924 18.0182 17.1542C18.0133 17.2192 18.0259 17.2843 18.0547 17.3428C18.071 17.3876 18.1036 17.4245 18.146 17.4462C18.205 17.4866 18.2711 17.5155 18.3407 17.5314C18.4346 17.563 18.53 17.5894 18.6267 17.6105C18.7342 17.6386 18.8399 17.6731 18.9432 17.714C19.0476 17.7499 19.146 17.8011 19.2352 17.8661C19.3285 17.9308 19.4056 18.0162 19.4604 18.1156C19.5214 18.2317 19.5507 18.3618 19.5456 18.4929C19.5491 18.6277 19.5199 18.7613 19.4604 18.8823C19.4068 18.9928 19.33 19.0903 19.2352 19.1684C19.1414 19.2493 19.0315 19.3095 18.9127 19.3448C18.7896 19.3876 18.6597 19.4082 18.5294 19.4057" fill="#EB5E1B"/><path d="M20.2758 19.3387H20.1541C20.1099 19.3388 20.0675 19.3216 20.0357 19.291C20.0039 19.2604 19.9852 19.2186 19.9837 19.1744V16.57C19.9852 16.5253 20.0036 16.4828 20.0353 16.4512C20.0669 16.4195 20.1093 16.4011 20.1541 16.3996H20.2758C20.3199 16.4012 20.3617 16.4198 20.3923 16.4516C20.423 16.4834 20.4401 16.5258 20.4401 16.57V19.1562C20.4401 19.1998 20.4227 19.2415 20.3919 19.2724C20.3611 19.3032 20.3193 19.3205 20.2758 19.3205V19.3387ZM20.2149 15.7363C20.1765 15.7364 20.1385 15.7289 20.103 15.7143C20.0675 15.6997 20.0352 15.6782 20.008 15.6511C19.9784 15.6217 19.9551 15.5865 19.9394 15.5478C19.9237 15.5092 19.916 15.4677 19.9167 15.426C19.9175 15.3766 19.9306 15.3281 19.9547 15.285C19.9789 15.2419 20.0134 15.2055 20.0551 15.179C20.0968 15.1525 20.1445 15.1368 20.1938 15.1333C20.2431 15.1298 20.2925 15.1386 20.3375 15.1589C20.3826 15.1793 20.4218 15.2105 20.4518 15.2497C20.4818 15.289 20.5016 15.3351 20.5093 15.3839C20.5171 15.4327 20.5126 15.4827 20.4963 15.5293C20.4799 15.576 20.4522 15.6178 20.4157 15.6511C20.3897 15.678 20.3584 15.6994 20.324 15.7141C20.2895 15.7287 20.2524 15.7363 20.2149 15.7363Z" fill="#EB5E1B"/><path d="M23.3062 19.3387H23.1784C23.1552 19.3389 23.1322 19.3341 23.111 19.3247C23.0898 19.3154 23.0708 19.3016 23.0553 19.2843C23.0398 19.2671 23.0281 19.2468 23.021 19.2247C23.0139 19.2026 23.0115 19.1792 23.0141 19.1562V17.6105C23.0125 17.5064 23.0023 17.4026 22.9837 17.3002C22.9658 17.2054 22.9308 17.1146 22.8802 17.0324C22.8309 16.9516 22.7618 16.8846 22.6794 16.8377C22.5778 16.7891 22.4666 16.7639 22.3539 16.7639C22.2412 16.7639 22.13 16.7891 22.0283 16.8377C21.9263 16.891 21.8354 16.9633 21.7606 17.0507C21.6742 17.1529 21.6081 17.2706 21.5658 17.3976C21.5141 17.5524 21.4894 17.715 21.4928 17.8783V19.1562C21.4928 19.1998 21.4755 19.2415 21.4447 19.2724C21.4139 19.3032 21.3721 19.3205 21.3285 19.3205H21.2068C21.1627 19.3205 21.1202 19.3034 21.0884 19.2727C21.0567 19.2421 21.038 19.2003 21.0364 19.1562V16.8925C21.0364 16.8316 21.0364 16.7769 21.0364 16.7221C21.0364 16.6673 21.0364 16.6187 21.0364 16.5821C21.0345 16.5591 21.0372 16.5358 21.0446 16.5139C21.0519 16.4919 21.0636 16.4716 21.079 16.4544C21.1109 16.4209 21.1546 16.4012 21.2007 16.3996H21.3285C21.3697 16.4008 21.409 16.4169 21.4392 16.4449C21.4694 16.4728 21.4884 16.5108 21.4928 16.5517C21.4928 16.5943 21.4928 16.643 21.4928 16.7038C21.5452 16.6502 21.6022 16.6014 21.6632 16.5578C21.7652 16.4789 21.8807 16.4192 22.004 16.3813C22.1261 16.3429 22.2532 16.3224 22.3813 16.3205C22.5664 16.3165 22.7498 16.3561 22.9168 16.4361C23.0551 16.511 23.1739 16.6173 23.2636 16.7464C23.3456 16.8733 23.4052 17.0133 23.4401 17.1602C23.4713 17.3042 23.4876 17.451 23.4888 17.5984V19.1562C23.4888 19.1998 23.4715 19.2415 23.4406 19.2724C23.4098 19.3032 23.368 19.3205 23.3245 19.3205" fill="#EB5E1B"/><path d="M25.3996 20.7505C25.151 20.7565 24.904 20.7088 24.6755 20.6105C24.4656 20.5186 24.2786 20.3814 24.1278 20.2089C24.0991 20.1784 24.0832 20.1382 24.0832 20.0963C24.0832 20.0545 24.0991 20.0142 24.1278 19.9838L24.213 19.8986C24.2291 19.8828 24.2481 19.8704 24.269 19.8621C24.2899 19.8537 24.3122 19.8496 24.3347 19.8499C24.3806 19.8527 24.4238 19.8722 24.4564 19.9047C24.5694 20.0429 24.7161 20.1498 24.8824 20.215C25.0398 20.2833 25.2097 20.3186 25.3813 20.3186C25.553 20.3186 25.7228 20.2833 25.8803 20.215C26.0026 20.1523 26.1057 20.0577 26.1785 19.9412C26.2554 19.8159 26.309 19.6778 26.3367 19.5335C26.3713 19.3653 26.3876 19.1939 26.3854 19.0223C26.3158 19.0938 26.2382 19.1571 26.1542 19.2109C26.039 19.2889 25.9114 19.3465 25.7769 19.3813C25.4452 19.478 25.0904 19.4565 24.7728 19.3205C24.5993 19.2438 24.4423 19.1343 24.3103 18.998C24.1749 18.8572 24.0712 18.6892 24.0061 18.5051C23.9311 18.3111 23.8939 18.1045 23.8966 17.8965C23.8947 17.6886 23.9318 17.4822 24.0061 17.288C24.0806 17.0849 24.1996 16.9011 24.3544 16.75C24.5092 16.599 24.696 16.4845 24.9008 16.415C25.1057 16.3456 25.3235 16.3229 25.5383 16.3487C25.7531 16.3744 25.9594 16.448 26.142 16.5639C26.2296 16.6225 26.3112 16.6898 26.3854 16.7647V16.5882C26.3869 16.5435 26.4053 16.5011 26.437 16.4694C26.4686 16.4378 26.5111 16.4194 26.5558 16.4178H26.6775C26.7216 16.4194 26.7634 16.4381 26.794 16.4699C26.8247 16.5016 26.8418 16.5441 26.8418 16.5882V19.0223C26.8427 19.227 26.8202 19.4312 26.7748 19.6308C26.7304 19.8313 26.6477 20.0214 26.5314 20.1907C26.4142 20.3565 26.2573 20.4904 26.075 20.5801C25.8631 20.6835 25.6292 20.7337 25.3935 20.7262L25.3996 20.7505ZM25.3935 16.7404C25.2508 16.7362 25.1092 16.7654 24.9797 16.8256C24.8565 16.8834 24.7466 16.9663 24.6572 17.069C24.5692 17.1733 24.5011 17.2929 24.4564 17.4219C24.359 17.6996 24.359 18.0022 24.4564 18.2799C24.5011 18.4107 24.5691 18.5324 24.6572 18.6389C24.7461 18.7364 24.8537 18.815 24.9736 18.8702C25.1037 18.929 25.2447 18.9594 25.3874 18.9594C25.5301 18.9594 25.6712 18.929 25.8012 18.8702C25.9272 18.8167 26.0395 18.7356 26.1298 18.6329C26.2238 18.5307 26.2962 18.4107 26.3428 18.2799C26.4485 18.0016 26.4485 17.6942 26.3428 17.4158C26.2962 17.2851 26.2238 17.165 26.1298 17.0629C26.0395 16.9601 25.9272 16.879 25.8012 16.8256C25.674 16.7652 25.5342 16.736 25.3935 16.7404Z" fill="#EB5E1B"/><path d="M27.5476 18.6998H27.3163V18.5781H27.9127V18.6998H27.6815V19.3387H27.5476V18.6998Z" fill="#EB5E1B"/><path d="M28.004 18.5781H28.2109L28.4117 19.1197L28.6064 18.5781H28.8194V19.3387H28.6855V18.7302L28.4543 19.3387H28.3569L28.1318 18.7302V19.3387H28.004V18.5781Z" fill="#EB5E1B"/></svg>

<svg xmlns="http://www.w3.org/2000/svg" viewBox="0 0 38 24" width="38" height="24" role="img" aria-labelledby="pi-acima_leasing"><title id="pi-acima_leasing">Acima Leasing</title><path fill="#fff" d="M0 0h38v24H0z"/><path d="M3.761 6.385a3.718 3.718 0 10-.085 7.437h.085c.732 0 1.448-.218 2.056-.627v.53h1.657v-3.632a3.718 3.718 0 00-3.718-3.719l.005.011zm-.005 5.705a2.008 2.008 0 112.013-1.997A2.008 2.008 0 013.76 12.1M33.565 6.385a3.718 3.718 0 000 7.437c.731 0 1.445-.218 2.05-.627v.53h1.663v-3.632a3.718 3.718 0 00-3.718-3.719l.005.011zm-.005 5.705a2.008 2.008 0 110-4.016 2.008 2.008 0 010 4.016zM11.75 13.816a3.718 3.718 0 113.017-5.88l-1.37.988a2.013 2.013 0 10.074 2.247l1.424.882a3.719 3.719 0 01-3.156 1.763M17.269 13.705h-1.62V7.777l1.62-1.174v7.102zM29.088 9.492v4.213h-1.764V9.492a1.216 1.216 0 00-2.433 0v4.213h-1.784V9.492A1.22 1.22 0 0021.4 8.291a1.222 1.222 0 00-.733 1.201v4.213h-1.763V9.492a2.985 2.985 0 015.104-2.098 2.97 2.97 0 015.079 2.098zM13.46 4.818l2.327 1.551.026-.037.006-1.514H13.46z" fill="#6BC4E8"/><path d="M15.787 4l1.615.85-1.6-.005-.015-.027V4z" fill="#0033A1"/><path d="M17.423 5.28l-1.636 1.09V4.817h1.492a.25.25 0 01.255.255.297.297 0 01-.111.207zM11.282 19.339H9.164A.164.164 0 019 19.174v-4.01A.164.164 0 019.164 15h.128a.164.164 0 01.164.164v3.73h1.826a.164.164 0 01.164.165v.097a.164.164 0 01-.164.165M13.028 19.418a1.47 1.47 0 01-.608-.122 1.393 1.393 0 01-.463-.328 1.455 1.455 0 01-.304-.506 1.868 1.868 0 01-.103-.608 1.607 1.607 0 01.11-.609c.067-.177.168-.34.297-.48.124-.14.278-.25.45-.323a1.466 1.466 0 011.157 0 1.28 1.28 0 01.688.78c.055.162.084.332.085.504v.11a.17.17 0 01-.17.164H12.03c.013.086.031.172.055.256.039.131.1.255.183.365a.994.994 0 001.009.322c.232-.06.435-.2.573-.395a.176.176 0 01.243 0l.091.079a.177.177 0 010 .231 1.54 1.54 0 01-.505.426c-.208.1-.438.15-.669.146l.018-.012zm-.998-1.813h1.826a.97.97 0 00-.06-.238.895.895 0 00-.19-.304.795.795 0 00-.286-.195 1.004 1.004 0 00-.797.03.912.912 0 00-.292.256 1.098 1.098 0 00-.17.323c0 .048 0 .091-.03.128zM15.718 19.418a1.253 1.253 0 01-.688-.213.846.846 0 01-.347-.7.822.822 0 01.183-.554 1.18 1.18 0 01.42-.31c.163-.07.335-.115.511-.134.156-.019.312-.029.469-.03h.286v-.043a.656.656 0 00-.177-.511.712.712 0 00-.499-.158c-.125 0-.248.022-.365.067-.115.05-.222.118-.316.2a.182.182 0 01-.128.043.153.153 0 01-.116-.073l-.067-.097a.17.17 0 010-.22c.137-.116.293-.207.463-.267.161-.061.332-.094.505-.098.297-.015.588.083.815.274a1.078 1.078 0 01.323.846v1.442a2.077 2.077 0 000 .262.178.178 0 01-.037.134.171.171 0 01-.127.06h-.122a.164.164 0 01-.158-.133v-.134a.915.915 0 01-.19.146c-.201.133-.439.203-.68.2h.042zm.566-1.503h-.432a1.507 1.507 0 00-.396.097.61.61 0 00-.261.183.432.432 0 00-.085.286.45.45 0 00.048.219c.03.057.073.106.128.14.06.038.126.067.195.085a.784.784 0 00.608-.06.695.695 0 00.292-.196.998.998 0 00.134-.31c.029-.118.043-.238.043-.359v-.06l-.274-.025zM18.548 19.406a1.351 1.351 0 01-.609-.128 1.218 1.218 0 01-.456-.377.188.188 0 010-.128.165.165 0 01.073-.11l.097-.067a.17.17 0 01.231.043.766.766 0 00.676.329.852.852 0 00.207-.03.549.549 0 00.176-.098.396.396 0 00.17-.335.377.377 0 00-.048-.2.438.438 0 00-.152-.128 1.023 1.023 0 00-.238-.098l-.28-.079a1.962 1.962 0 01-.285-.091 1.016 1.016 0 01-.262-.152.675.675 0 01-.189-.244.802.802 0 01-.073-.359.78.78 0 01.316-.633.912.912 0 01.31-.146c.11-.036.226-.055.342-.055a1.065 1.065 0 01.93.45.176.176 0 010 .135.158.158 0 01-.078.11l-.104.06a.17.17 0 01-.219-.043.608.608 0 00-.237-.206.719.719 0 00-.505-.037.609.609 0 00-.17.067.426.426 0 00-.11.122.304.304 0 00-.043.176.365.365 0 00.037.189.189.189 0 00.091.103c.059.04.125.07.195.085.094.032.189.058.286.08.107.028.213.062.316.103.105.036.203.087.292.152.093.065.17.15.225.25.061.116.09.246.086.377a.853.853 0 01-.31.675.876.876 0 01-.323.177 1.103 1.103 0 01-.384.06M20.276 19.339h-.122a.17.17 0 01-.17-.165V16.57a.176.176 0 01.17-.17h.122a.17.17 0 01.164.17v2.586a.165.165 0 01-.164.165v.018zm-.061-3.603a.292.292 0 01-.207-.085.31.31 0 01-.053-.366.3.3 0 01.554.099.298.298 0 01-.093.267.281.281 0 01-.201.085zM23.306 19.339h-.128a.163.163 0 01-.157-.114.164.164 0 01-.007-.069V17.61a1.9 1.9 0 00-.03-.31.79.79 0 00-.104-.268.56.56 0 00-.2-.194.754.754 0 00-.652 0 .903.903 0 00-.267.213c-.087.102-.153.22-.195.347a1.424 1.424 0 00-.073.48v1.278a.164.164 0 01-.165.165h-.121a.17.17 0 01-.17-.165v-2.264-.17-.14a.17.17 0 01.042-.128.177.177 0 01.122-.054h.127a.17.17 0 01.165.152v.152c.052-.054.11-.103.17-.146.102-.08.218-.139.341-.177.122-.038.25-.059.377-.06a1.18 1.18 0 01.536.115c.138.075.257.181.347.31.082.127.141.267.176.414.031.144.048.291.049.438v1.558a.164.164 0 01-.165.165M25.4 20.75a1.727 1.727 0 01-.724-.14 1.557 1.557 0 01-.548-.401.164.164 0 010-.225l.085-.085a.169.169 0 01.122-.05c.046.004.089.023.121.056.113.138.26.245.426.31a1.254 1.254 0 00.998 0 .761.761 0 00.299-.274c.076-.125.13-.263.158-.407.034-.169.05-.34.048-.512-.07.072-.147.135-.23.189a1.216 1.216 0 01-.378.17 1.49 1.49 0 01-1.004-.06 1.473 1.473 0 01-.463-.323 1.37 1.37 0 01-.304-.493 1.63 1.63 0 01-.11-.608 1.66 1.66 0 01.11-.609 1.45 1.45 0 012.136-.724c.088.058.17.126.243.2v-.176a.176.176 0 01.17-.17h.122a.17.17 0 01.165.17v2.434c0 .205-.022.41-.067.609a1.6 1.6 0 01-.244.56c-.117.166-.274.3-.456.39a1.449 1.449 0 01-.681.145l.006.024zm-.006-4.01a.917.917 0 00-.414.086.979.979 0 00-.323.243 1.112 1.112 0 00-.2.353c-.098.278-.098.58 0 .858.044.13.112.252.2.359a.986.986 0 001.144.231 1.034 1.034 0 00.542-.59 1.217 1.217 0 000-.864 1.033 1.033 0 00-.542-.59.886.886 0 00-.407-.086zM27.548 18.7h-.232v-.122h.597v.122h-.232v.639h-.133v-.64zM28.004 18.578h.207l.2.542.195-.542h.213v.76h-.133v-.608l-.232.609h-.097l-.225-.609v.609h-.128v-.76z" fill="#EB5E1B"/></svg>
